images/q4inp5.svg

<svg width="270" height="175" viewBox="0 0 270 175" fill="none" xmlns="http://www.w3.org/2000/svg">
<rect width="270" height="175" fill="white"/>
<path d="M134.131 97.7C132.731 97.7 132.031 97 132.031 95.6C132.031 93.8333 132.331 92.4167 132.931 91.35C133.548 90.2833 134.281 89.4417 135.131 88.825C135.981 88.2083 136.765 87.7 137.481 87.3C138.215 86.8667 138.831 86.4667 139.331 86.1C139.848 85.7333 140.231 85.2833 140.481 84.75C140.748 84.2167 140.881 83.4833 140.881 82.55C140.881 80.5667 140.531 79.2333 139.831 78.55C139.148 77.85 137.815 77.5 135.831 77.5H132.481C130.515 77.5 129.181 77.8583 128.481 78.575C127.781 79.2917 127.431 80.6167 127.431 82.55C127.431 83.95 126.731 84.65 125.331 84.65C123.931 84.65 123.231 83.95 123.231 82.55C123.231 79.45 123.998 77.1333 125.531 75.6C127.065 74.0667 129.381 73.3 132.481 73.3H135.831C138.965 73.3 141.29 74.0583 142.806 75.575C144.323 77.0917 145.081 79.4167 145.081 82.55C145.081 84.3167 144.773 85.7333 144.156 86.8C143.556 87.8667 142.831 88.7083 141.981 89.325C141.131 89.9417 140.348 90.45 139.631 90.85C138.898 91.2833 138.273 91.6833 137.756 92.05C137.256 92.4167 136.873 92.8667 136.606 93.4C136.356 93.9333 136.231 94.6667 136.231 95.6C136.231 97 135.531 97.7 134.131 97.7ZM133.531 106C132.198 106 131.531 105.333 131.531 104V102.75C131.531 101.45 132.198 100.8 133.531 100.8H134.731C135.998 100.8 136.631 101.45 136.631 102.75V104C136.631 105.333 135.998 106 134.731 106H133.531Z" fill="#40C1FF"/>
</svg>

<svg width="270" height="175" fill="none" xmlns="http://www.w3.org/2000/svg"><path fill="#fff" d="M0 0h270v175H0z"/><path d="M134.131 97.7c-1.4 0-2.1-.7-2.1-2.1 0-1.767.3-3.183.9-4.25.617-1.067 1.35-1.908 2.2-2.525a23.966 23.966 0 0 1 2.35-1.525c.734-.433 1.35-.833 1.85-1.2.517-.367.9-.817 1.15-1.35.267-.533.4-1.267.4-2.2 0-1.983-.35-3.317-1.05-4-.683-.7-2.016-1.05-4-1.05h-3.35c-1.966 0-3.3.358-4 1.075-.7.717-1.05 2.042-1.05 3.975 0 1.4-.7 2.1-2.1 2.1-1.4 0-2.1-.7-2.1-2.1 0-3.1.767-5.417 2.3-6.95 1.534-1.533 3.85-2.3 6.95-2.3h3.35c3.134 0 5.459.758 6.975 2.275 1.517 1.517 2.275 3.842 2.275 6.975 0 1.767-.308 3.183-.925 4.25-.6 1.067-1.325 1.908-2.175 2.525a23.848 23.848 0 0 1-2.35 1.525 27.24 27.24 0 0 0-1.875 1.2c-.5.367-.883.817-1.15 1.35-.25.533-.375 1.267-.375 2.2 0 1.4-.7 2.1-2.1 2.1Zm-.6 8.3c-1.333 0-2-.667-2-2v-1.25c0-1.3.667-1.95 2-1.95h1.2c1.267 0 1.9.65 1.9 1.95V104c0 1.333-.633 2-1.9 2h-1.2Z" fill="#40C1FF"/></svg>
